X:1
T:no name
R:slide
D:Chieftains: Live
Z:id:hn-slide-1
M:6/8
K:D
g2g|:f2e A2=c|B2A g2g|f2e AB^c|d3 g2g|
f2e A2=c|B2A g2g|fga ge^c|1 d3 g2g:|2 d3 d2e||
|:f2g afd|c2d ecA|f2g afd|~f3 gag|
f2g afd|c2d ecA|fga gfe|1 d3 d2e:|2 d3||
<end>
<start>
